X: 2
T: Cronin's Rambles
M: 4/4
L: 1/8
R: hornpipe
K: Gmaj
|: DF |\ 
GFGA BGAB | cBce d2 ef | gdBd c2 dc | BGAF DEFD |
G3 A B2 AB | c3 e d^cdf | gdBd cAFA | G2 G2 G2 :|
|: EF |\
GBdB gdBd | fece d2 ef | gdBd c2 dc | BGAF DEFD |
[1 GBdf gdBd | fece d2 ef | g2 d2 cAFA | G2 FA G2 :|
[2 GFGA BGAB | c2 ce d2 ef | g2 Bd cADF | AGGF G2 |]
